static/img/kroki/db4cbead54f2fc0f0b9c3c4089eef0e7.svg

<?xml version="1.0" encoding="us-ascii" standalone="no"?><svg xmlns="http://www.w3.org/2000/svg" xmlns:xlink="http://www.w3.org/1999/xlink" contentStyleType="text/css" height="919px" preserveAspectRatio="none" style="width:453px;height:919px;" version="1.1" viewBox="0 0 453 919" width="453px" zoomAndPan="magnify"><defs/><g><!--class onelogin_region--><g id="elem_onelogin_region"><rect codeLine="23" fill="#3D176E" height="39.7891" id="onelogin_region" rx="2.5" ry="2.5" style="stroke:#000D19;stroke-width:0.5;" width="176" x="91" y="873.52"/><ellipse cx="106" cy="893.4145" fill="#ADD1B2" rx="11" ry="11" style="stroke:#181818;stroke-width:1.0;"/><path d="M108.9688,899.0552 Q108.3906,899.352 107.75,899.4927 Q107.1094,899.6489 106.4063,899.6489 Q103.9063,899.6489 102.5781,898.0083 Q101.2656,896.352 101.2656,893.227 Q101.2656,890.102 102.5781,888.4458 Q103.9063,886.7895 106.4063,886.7895 Q107.1094,886.7895 107.75,886.9458 Q108.4063,887.102 108.9688,887.3989 L108.9688,890.1177 Q108.3438,889.5395 107.75,889.2739 Q107.1563,888.9927 106.5313,888.9927 Q105.1875,888.9927 104.5,890.0708 Q103.8125,891.1333 103.8125,893.227 Q103.8125,895.3208 104.5,896.3989 Q105.1875,897.4614 106.5313,897.4614 Q107.1563,897.4614 107.75,897.1958 Q108.3438,896.9145 108.9688,896.3364 L108.9688,899.0552 Z " fill="#000000"/><text fill="#D9B8FF" font-family="Helvetica" font-size="17" lengthAdjust="spacing" textLength="134" x="125" y="899.2998">onelogin_region</text></g><!--class onelogin_resource--><g id="elem_onelogin_resource"><rect codeLine="26" fill="#3D176E" height="39.7891" id="onelogin_resource" rx="2.5" ry="2.5" style="stroke:#000D19;stroke-width:0.5;" width="194" x="7" y="656.14"/><ellipse cx="22" cy="676.0345" fill="#ADD1B2" rx="11" ry="11" style="stroke:#181818;stroke-width:1.0;"/><path d="M24.9688,681.6752 Q24.3906,681.972 23.75,682.1127 Q23.1094,682.2689 22.4063,682.2689 Q19.9063,682.2689 18.5781,680.6283 Q17.2656,678.972 17.2656,675.847 Q17.2656,672.722 18.5781,671.0658 Q19.9063,669.4095 22.4063,669.4095 Q23.1094,669.4095 23.75,669.5658 Q24.4063,669.722 24.9688,670.0189 L24.9688,672.7377 Q24.3438,672.1595 23.75,671.8939 Q23.1563,671.6127 22.5313,671.6127 Q21.1875,671.6127 20.5,672.6908 Q19.8125,673.7533 19.8125,675.847 Q19.8125,677.9408 20.5,679.0189 Q21.1875,680.0814 22.5313,680.0814 Q23.1563,680.0814 23.75,679.8158 Q24.3438,679.5345 24.9688,678.9564 L24.9688,681.6752 Z " fill="#000000"/><text fill="#D9B8FF" font-family="Helvetica" font-size="17" lengthAdjust="spacing" textLength="152" x="41" y="681.9198">onelogin_resource</text></g><!--class phantom_resource--><g id="elem_phantom_resource"><rect codeLine="29" fill="#3D176E" height="39.7891" id="phantom_resource" rx="2.5" ry="2.5" style="stroke:#000D19;stroke-width:0.5;" width="198" x="234" y="438.76"/><ellipse cx="249" cy="458.6545" fill="#ADD1B2" rx="11" ry="11" style="stroke:#181818;stroke-width:1.0;"/><path d="M251.9688,464.2952 Q251.3906,464.592 250.75,464.7327 Q250.1094,464.8889 249.4063,464.8889 Q246.9063,464.8889 245.5781,463.2483 Q244.2656,461.592 244.2656,458.467 Q244.2656,455.342 245.5781,453.6858 Q246.9063,452.0295 249.4063,452.0295 Q250.1094,452.0295 250.75,452.1858 Q251.4063,452.342 251.9688,452.6389 L251.9688,455.3577 Q251.3438,454.7795 250.75,454.5139 Q250.1563,454.2327 249.5313,454.2327 Q248.1875,454.2327 247.5,455.3108 Q246.8125,456.3733 246.8125,458.467 Q246.8125,460.5608 247.5,461.6389 Q248.1875,462.7014 249.5313,462.7014 Q250.1563,462.7014 250.75,462.4358 Q251.3438,462.1545 251.9688,461.5764 L251.9688,464.2952 Z " fill="#000000"/><text fill="#D9B8FF" font-family="Helvetica" font-size="17" lengthAdjust="spacing" textLength="156" x="268" y="464.5398">phantom_resource</text></g><!--class region--><g id="elem_region"><rect codeLine="32" fill="#3D176E" height="152.9766" id="region" rx="2.5" ry="2.5" style="stroke:#000D19;stroke-width:0.5;" width="195" x="235.5" y="599.54"/><ellipse cx="297.25" cy="619.4345" fill="#ADD1B2" rx="11" ry="11" style="stroke:#181818;stroke-width:1.0;"/><path d="M300.2188,625.0752 Q299.6406,625.372 299,625.5127 Q298.3594,625.6689 297.6563,625.6689 Q295.1563,625.6689 293.8281,624.0283 Q292.5156,622.372 292.5156,619.247 Q292.5156,616.122 293.8281,614.4658 Q295.1563,612.8095 297.6563,612.8095 Q298.3594,612.8095 299,612.9658 Q299.6563,613.122 300.2188,613.4189 L300.2188,616.1377 Q299.5938,615.5595 299,615.2939 Q298.4063,615.0127 297.7813,615.0127 Q296.4375,615.0127 295.75,616.0908 Q295.0625,617.1533 295.0625,619.247 Q295.0625,621.3408 295.75,622.4189 Q296.4375,623.4814 297.7813,623.4814 Q298.4063,623.4814 299,623.2158 Q299.5938,622.9345 300.2188,622.3564 L300.2188,625.0752 Z " fill="#000000"/><text fill="#D9B8FF" font-family="Helvetica" font-size="17" lengthAdjust="spacing" textLength="53" x="322.75" y="625.3198">region</text><line style="stroke:#000D19;stroke-width:0.5;" x1="236.5" x2="429.5" y1="639.3291" y2="639.3291"/><text fill="#D9B8FF" font-family="sans-serif" font-size="14" font-weight="bold" lengthAdjust="spacing" textLength="59" x="246.5" y="661.3242">latitude</text><text fill="#D9B8FF" font-family="sans-serif" font-size="14" lengthAdjust="spacing" textLength="57" x="305.5" y="661.3242">: double</text><text fill="#D9B8FF" font-family="sans-serif" font-size="14" font-weight="bold" lengthAdjust="spacing" textLength="84" x="246.5" y="687.6211">long_name</text><text fill="#D9B8FF" font-family="sans-serif" font-size="14" lengthAdjust="spacing" textLength="48" x="330.5" y="687.6211">: string</text><text fill="#D9B8FF" font-family="sans-serif" font-size="14" font-weight="bold" lengthAdjust="spacing" textLength="74" x="246.5" y="713.9179">longitude</text><text fill="#D9B8FF" font-family="sans-serif" font-size="14" lengthAdjust="spacing" textLength="57" x="320.5" y="713.9179">: double</text><text fill="#D9B8FF" font-family="sans-serif" font-size="14" font-weight="bold" lengthAdjust="spacing" textLength="108" x="246.5" y="740.2148">region_in_use</text><text fill="#D9B8FF" font-family="sans-serif" font-size="14" lengthAdjust="spacing" textLength="65" x="354.5" y="740.2148">: boolean</text></g><!--class resource--><g id="elem_resource"><rect codeLine="38" fill="#3D176E" height="310.7578" id="resource" rx="2.5" ry="2.5" style="stroke:#000D19;stroke-width:0.5;" width="227" x="219.5" y="7"/><ellipse cx="288.25" cy="26.8945" fill="#ADD1B2" rx="11" ry="11" style="stroke:#181818;stroke-width:1.0;"/><path d="M291.2188,32.5352 Q290.6406,32.832 290,32.9727 Q289.3594,33.1289 288.6563,33.1289 Q286.1563,33.1289 284.8281,31.4883 Q283.5156,29.832 283.5156,26.707 Q283.5156,23.582 284.8281,21.9258 Q286.1563,20.2695 288.6563,20.2695 Q289.3594,20.2695 290,20.4258 Q290.6563,20.582 291.2188,20.8789 L291.2188,23.5977 Q290.5938,23.0195 290,22.7539 Q289.4063,22.4727 288.7813,22.4727 Q287.4375,22.4727 286.75,23.5508 Q286.0625,24.6133 286.0625,26.707 Q286.0625,28.8008 286.75,29.8789 Q287.4375,30.9414 288.7813,30.9414 Q289.4063,30.9414 290,30.6758 Q290.5938,30.3945 291.2188,29.8164 L291.2188,32.5352 Z " fill="#000000"/><text fill="#D9B8FF" font-family="Helvetica" font-size="17" lengthAdjust="spacing" textLength="71" x="313.75" y="32.7798">resource</text><line style="stroke:#000D19;stroke-width:0.5;" x1="220.5" x2="445.5" y1="46.7891" y2="46.7891"/><text fill="#D9B8FF" font-family="sans-serif" font-size="14" font-weight="bold" lengthAdjust="spacing" textLength="29" x="230.5" y="68.7842">age</text><text fill="#D9B8FF" font-family="sans-serif" font-size="14" lengthAdjust="spacing" textLength="66" x="259.5" y="68.7842">: duration</text><text fill="#D9B8FF" font-family="sans-serif" font-size="14" font-weight="bold" lengthAdjust="spacing" textLength="43" x="230.5" y="95.0811">atime</text><text fill="#D9B8FF" font-family="sans-serif" font-size="14" lengthAdjust="spacing" textLength="70" x="273.5" y="95.0811">: datetime</text><text fill="#D9B8FF" font-family="sans-serif" font-size="14" font-weight="bold" lengthAdjust="spacing" textLength="43" x="230.5" y="121.3779">ctime</text><text fill="#D9B8FF" font-family="sans-serif" font-size="14" lengthAdjust="spacing" textLength="70" x="273.5" y="121.3779">: datetime</text><text fill="#D9B8FF" font-family="sans-serif" font-size="14" font-weight="bold" lengthAdjust="spacing" textLength="14" x="230.5" y="147.6748">id</text><text fill="#D9B8FF" font-family="sans-serif" font-size="14" lengthAdjust="spacing" textLength="48" x="244.5" y="147.6748">: string</text><text fill="#D9B8FF" font-family="sans-serif" font-size="14" font-weight="bold" lengthAdjust="spacing" textLength="33" x="230.5" y="173.9717">kind</text><text fill="#D9B8FF" font-family="sans-serif" font-size="14" lengthAdjust="spacing" textLength="48" x="263.5" y="173.9717">: string</text><text fill="#D9B8FF" font-family="sans-serif" font-size="14" font-weight="bold" lengthAdjust="spacing" textLength="90" x="230.5" y="200.2686">last_access</text><text fill="#D9B8FF" font-family="sans-serif" font-size="14" lengthAdjust="spacing" textLength="66" x="320.5" y="200.2686">: duration</text><text fill="#D9B8FF" font-family="sans-serif" font-size="14" font-weight="bold" lengthAdjust="spacing" textLength="90" x="230.5" y="226.5654">last_update</text><text fill="#D9B8FF" font-family="sans-serif" font-size="14" lengthAdjust="spacing" textLength="66" x="320.5" y="226.5654">: duration</text><text fill="#D9B8FF" font-family="sans-serif" font-size="14" font-weight="bold" lengthAdjust="spacing" textLength="48" x="230.5" y="252.8623">mtime</text><text fill="#D9B8FF" font-family="sans-serif" font-size="14" lengthAdjust="spacing" textLength="70" x="278.5" y="252.8623">: datetime</text><text fill="#D9B8FF" font-family="sans-serif" font-size="14" font-weight="bold" lengthAdjust="spacing" textLength="43" x="230.5" y="279.1592">name</text><text fill="#D9B8FF" font-family="sans-serif" font-size="14" lengthAdjust="spacing" textLength="48" x="273.5" y="279.1592">: string</text><text fill="#D9B8FF" font-family="sans-serif" font-size="14" font-weight="bold" lengthAdjust="spacing" textLength="34" x="230.5" y="305.4561">tags</text><text fill="#D9B8FF" font-family="sans-serif" font-size="14" lengthAdjust="spacing" textLength="171" x="264.5" y="305.4561">: dictionary[string, string]</text></g><!--reverse link onelogin_resource to onelogin_region--><g id="link_onelogin_resource_onelogin_region"><path codeLine="50" d="M116.5768,713.1498 C130.7668,753.9198 157.97,832.03 172.25,873.03 " fill="none" id="onelogin_resource-backto-onelogin_region" style="stroke:#FFAF37;stroke-width:2.0;"/><polygon fill="none" points="110.66,696.15,110.9102,715.122,122.2434,711.1775,110.66,696.15" style="stroke:#FFAF37;stroke-width:2.0;"/></g><!--reverse link region to onelogin_region--><g id="link_region_onelogin_region"><path codeLine="51" d="M268.239,767.611 C237.579,810.481 212.12,846.09 192.87,873.02 " fill="none" id="region-backto-onelogin_region" style="stroke:#FFAF37;stroke-width:2.0;"/><polygon fill="none" points="278.71,752.97,263.3587,764.1206,273.1193,771.1013,278.71,752.97" style="stroke:#FFAF37;stroke-width:2.0;"/></g><!--reverse link resource to phantom_resource--><g id="link_resource_phantom_resource"><path codeLine="52" d="M333,335.84 C333,384.13 333,413.36 333,438.67 " fill="none" id="resource-backto-phantom_resource" style="stroke:#FFAF37;stroke-width:2.0;"/><polygon fill="none" points="333,317.84,327,335.84,339,335.84,333,317.84" style="stroke:#FFAF37;stroke-width:2.0;"/></g><!--reverse link phantom_resource to region--><g id="link_phantom_resource_region"><path codeLine="53" d="M333,496.76 C333,523.63 333,556.11 333,599.15 " fill="none" id="phantom_resource-backto-region" style="stroke:#FFAF37;stroke-width:2.0;"/><polygon fill="none" points="333,478.76,327,496.76,339,496.76,333,478.76" style="stroke:#FFAF37;stroke-width:2.0;"/></g><!--SRC=[XLDDRzim3BtxLmZepMY0P4MNPkYb3J1ibs9OTnk6W9PeHuWj6XAz8lluxvDYBr2afBqPxptoFPBoLYiKsFMy5nrs5LfNk9qsFLZen8ErzBAcbgougckeRvOf-P4ClobuWWx59sn_8ci9gUBRLikTGUV4kuXw1BbhB0r6ZUtPWd6UGiEHQjs2Sm_CLbS3OnH6hQgxkawLQTEh6xLOliTCHbQXdIJp-LmjLgdaJQjNvpugdlKl58juQK_4cCNCB0wgLrC6HHGo6_G_Vp7Z5r1AcqRSHjZNCPCrQ4_mvoqeUWdg6beNspX6YyJx7jVPLBYwK_NohFZp9N4Xm-e46MofqMPZiT5anE-Y-9jJZWOhCIRxBHYcxYntR5MMBR3cGM5PVX2AXgh5099fDiQlAw3EFpdJJ6Yk7NjjV8h17PYAg4KmaTanG5b2CrOFrlkI2GZhqKS1O_Zsc3o3QNKInc_o5F1Ul04f_T-LE1oOeG-z4gOxuvEDpT2C7RKCPM3ttqVkUjByyAFcfxZ_CvlDqkiLq-OlaIUrwGMBxAIZRgh-1m00]--></g></svg>

<svg xmlns="http://www.w3.org/2000/svg" width="453" height="919" viewBox="0 0 453 919"><rect width="176" height="39.789" x="91" y="873.52" fill="#3D176E" rx="2.5" ry="2.5" style="stroke:#000d19;stroke-width:.5"/><circle cx="106" cy="893.414" r="11" fill="#ADD1B2" style="stroke:#181818;stroke-width:1"/><path d="M108.969 899.055q-.578.297-1.219.438-.64.156-1.344.156-2.5 0-3.828-1.64-1.312-1.657-1.312-4.782t1.312-4.781q1.328-1.657 3.828-1.657.703 0 1.344.157.656.156 1.219.453v2.719q-.625-.579-1.219-.844-.594-.281-1.219-.281-1.344 0-2.031 1.078-.687 1.062-.687 3.156t.687 3.172q.688 1.062 2.031 1.062.625 0 1.219-.265.594-.282 1.219-.86z"/><text x="125" y="899.3" fill="#D9B8FF" font-family="Helvetica" font-size="17" textLength="134">onelogin_region</text><rect width="194" height="39.789" x="7" y="656.14" fill="#3D176E" rx="2.5" ry="2.5" style="stroke:#000d19;stroke-width:.5"/><circle cx="22" cy="676.034" r="11" fill="#ADD1B2" style="stroke:#181818;stroke-width:1"/><path d="M24.969 681.675q-.578.297-1.219.438-.64.156-1.344.156-2.5 0-3.828-1.64-1.312-1.657-1.312-4.782t1.312-4.781q1.328-1.657 3.828-1.657.703 0 1.344.157.656.156 1.219.453v2.719q-.625-.579-1.219-.844-.594-.281-1.219-.281-1.343 0-2.031 1.078-.687 1.062-.687 3.156t.687 3.172q.688 1.062 2.031 1.062.625 0 1.219-.265.594-.282 1.219-.86z"/><text x="41" y="681.92" fill="#D9B8FF" font-family="Helvetica" font-size="17" textLength="152">onelogin_resource</text><rect width="198" height="39.789" x="234" y="438.76" fill="#3D176E" rx="2.5" ry="2.5" style="stroke:#000d19;stroke-width:.5"/><circle cx="249" cy="458.654" r="11" fill="#ADD1B2" style="stroke:#181818;stroke-width:1"/><path d="M251.969 464.295q-.578.297-1.219.438-.64.156-1.344.156-2.5 0-3.828-1.64-1.312-1.657-1.312-4.782t1.312-4.781q1.328-1.656 3.828-1.656.703 0 1.344.156.656.156 1.219.453v2.719q-.625-.579-1.219-.844-.594-.281-1.219-.281-1.344 0-2.031 1.078-.687 1.062-.687 3.156t.687 3.172q.688 1.062 2.031 1.062.625 0 1.219-.265.594-.281 1.219-.86z"/><text x="268" y="464.54" fill="#D9B8FF" font-family="Helvetica" font-size="17" textLength="156">phantom_resource</text><rect width="195" height="152.977" x="235.5" y="599.54" fill="#3D176E" rx="2.5" ry="2.5" style="stroke:#000d19;stroke-width:.5"/><circle cx="297.25" cy="619.434" r="11" fill="#ADD1B2" style="stroke:#181818;stroke-width:1"/><path d="M300.219 625.075q-.578.297-1.219.438-.64.156-1.344.156-2.5 0-3.828-1.64-1.312-1.657-1.312-4.782t1.312-4.781q1.328-1.657 3.828-1.657.703 0 1.344.157.656.156 1.219.453v2.719q-.625-.579-1.219-.844-.594-.281-1.219-.281-1.344 0-2.031 1.078-.687 1.062-.687 3.156t.687 3.172q.688 1.062 2.031 1.062.625 0 1.219-.265.594-.282 1.219-.86z"/><text x="322.75" y="625.32" fill="#D9B8FF" font-family="Helvetica" font-size="17" textLength="53">region</text><path d="M236.5 639.329h193" style="stroke:#000d19;stroke-width:.5"/><text x="246.5" y="661.324" fill="#D9B8FF" font-family="sans-serif" font-size="14" font-weight="bold" textLength="59">latitude</text><text x="305.5" y="661.324" fill="#D9B8FF" font-family="sans-serif" font-size="14" textLength="57">: double</text><text x="246.5" y="687.621" fill="#D9B8FF" font-family="sans-serif" font-size="14" font-weight="bold" textLength="84">long_name</text><text x="330.5" y="687.621" fill="#D9B8FF" font-family="sans-serif" font-size="14" textLength="48">: string</text><text x="246.5" y="713.918" fill="#D9B8FF" font-family="sans-serif" font-size="14" font-weight="bold" textLength="74">longitude</text><text x="320.5" y="713.918" fill="#D9B8FF" font-family="sans-serif" font-size="14" textLength="57">: double</text><text x="246.5" y="740.215" fill="#D9B8FF" font-family="sans-serif" font-size="14" font-weight="bold" textLength="108">region_in_use</text><text x="354.5" y="740.215" fill="#D9B8FF" font-family="sans-serif" font-size="14" textLength="65">: boolean</text><rect width="227" height="310.758" x="219.5" y="7" fill="#3D176E" rx="2.5" ry="2.5" style="stroke:#000d19;stroke-width:.5"/><circle cx="288.25" cy="26.895" r="11" fill="#ADD1B2" style="stroke:#181818;stroke-width:1"/><path d="M291.219 32.535q-.578.297-1.219.438-.64.156-1.344.156-2.5 0-3.828-1.64-1.312-1.657-1.312-4.782t1.312-4.781q1.328-1.656 3.828-1.656.703 0 1.344.156.656.156 1.219.453v2.719q-.625-.578-1.219-.844-.594-.281-1.219-.281-1.344 0-2.031 1.078-.687 1.062-.687 3.156t.687 3.172q.688 1.062 2.031 1.062.625 0 1.219-.265.594-.281 1.219-.86z"/><text x="313.75" y="32.78" fill="#D9B8FF" font-family="Helvetica" font-size="17" textLength="71">resource</text><path d="M220.5 46.789h225" style="stroke:#000d19;stroke-width:.5"/><text x="230.5" y="68.784" fill="#D9B8FF" font-family="sans-serif" font-size="14" font-weight="bold" textLength="29">age</text><text x="259.5" y="68.784" fill="#D9B8FF" font-family="sans-serif" font-size="14" textLength="66">: duration</text><text x="230.5" y="95.081" fill="#D9B8FF" font-family="sans-serif" font-size="14" font-weight="bold" textLength="43">atime</text><text x="273.5" y="95.081" fill="#D9B8FF" font-family="sans-serif" font-size="14" textLength="70">: datetime</text><text x="230.5" y="121.378" fill="#D9B8FF" font-family="sans-serif" font-size="14" font-weight="bold" textLength="43">ctime</text><text x="273.5" y="121.378" fill="#D9B8FF" font-family="sans-serif" font-size="14" textLength="70">: datetime</text><text x="230.5" y="147.675" fill="#D9B8FF" font-family="sans-serif" font-size="14" font-weight="bold" textLength="14">id</text><text x="244.5" y="147.675" fill="#D9B8FF" font-family="sans-serif" font-size="14" textLength="48">: string</text><text x="230.5" y="173.972" fill="#D9B8FF" font-family="sans-serif" font-size="14" font-weight="bold" textLength="33">kind</text><text x="263.5" y="173.972" fill="#D9B8FF" font-family="sans-serif" font-size="14" textLength="48">: string</text><text x="230.5" y="200.269" fill="#D9B8FF" font-family="sans-serif" font-size="14" font-weight="bold" textLength="90">last_access</text><text x="320.5" y="200.269" fill="#D9B8FF" font-family="sans-serif" font-size="14" textLength="66">: duration</text><text x="230.5" y="226.565" fill="#D9B8FF" font-family="sans-serif" font-size="14" font-weight="bold" textLength="90">last_update</text><text x="320.5" y="226.565" fill="#D9B8FF" font-family="sans-serif" font-size="14" textLength="66">: duration</text><text x="230.5" y="252.862" fill="#D9B8FF" font-family="sans-serif" font-size="14" font-weight="bold" textLength="48">mtime</text><text x="278.5" y="252.862" fill="#D9B8FF" font-family="sans-serif" font-size="14" textLength="70">: datetime</text><text x="230.5" y="279.159" fill="#D9B8FF" font-family="sans-serif" font-size="14" font-weight="bold" textLength="43">name</text><text x="273.5" y="279.159" fill="#D9B8FF" font-family="sans-serif" font-size="14" textLength="48">: string</text><text x="230.5" y="305.456" fill="#D9B8FF" font-family="sans-serif" font-size="14" font-weight="bold" textLength="34">tags</text><text x="264.5" y="305.456" fill="#D9B8FF" font-family="sans-serif" font-size="14" textLength="171">: dictionary[string, string]</text><path fill="none" d="M116.577 713.15c14.19 40.77 41.393 118.88 55.673 159.88m-61.59-176.88.25 18.972 11.333-3.944zm157.579 71.461c-30.66 42.87-56.119 78.479-75.369 105.409m85.84-120.05-15.351 11.15 9.76 6.981zM333 335.84v102.83m0-120.83-6 18h12zm0 178.92v102.39m0-120.39-6 18h12z" style="stroke:#ffaf37;stroke-width:2"/></svg>
